icons/14x14_dropbox_filled.svg

<svg xmlns="http://www.w3.org/2000/svg" width="14" height="14" viewBox="0 0 14 14">
  <path fill-rule="evenodd" d="M3.49985135,2 L7.0002973,4 L3.49985135,6 L0,4 L3.49985135,2 Z M10.5001487,2 L14,4 L10.5001487,6 L7.0002973,4 L10.5001487,2 Z M0,8 L3.49985135,6 L7.0002973,8 L3.49985135,10 L0,8 Z M10.5001487,6 L14,8 L10.5001487,10 L7.0002973,8 L10.5001487,6 Z M7.0002973,13 L3.49985135,11 L7.0002973,9 L10.5001487,11 L7.0002973,13 Z"/>
</svg>

<svg width="14" height="14" fill="none" xmlns="http://www.w3.org/2000/svg"><path fill-rule="evenodd" clip-rule="evenodd" d="M3.5 2 7 4 3.5 6 0 4l3.5-2Zm7 0L14 4l-3.5 2L7 4l3.5-2ZM0 8l3.5-2L7 8l-3.5 2L0 8Zm10.5-2L14 8l-3.5 2L7 8l3.5-2ZM7 13l-3.5-2L7 9l3.5 2L7 13Z" fill="#000"/></svg>
